img/icons/corp2/7.svg

<svg width="80" height="32" viewBox="0 0 80 32" fill="none" xmlns="http://www.w3.org/2000/svg">
<path fill-rule="evenodd" clip-rule="evenodd" d="M57.7536 18.8738V15.6992H63.9648V18.8754L57.7536 18.8738ZM49.4832 18.8738V15.6992H55.6944V18.8754L49.4832 18.8738ZM67.056 26.2697C59.5136 23.4381 55.6352 21.982 45.176 25.6483C37.5968 28.306 34.8144 28.306 27.2336 25.6483C16.7696 21.9836 12.8976 23.4365 5.3536 26.2681C4.1696 26.7123 2.8832 27.1961 1.3504 27.7321L2.8128 31.8284C4.2496 31.3272 5.632 30.8055 6.9008 30.3296C13.4544 27.8696 16.8176 26.608 25.7728 29.7447C34.2624 32.7217 37.9792 32.7817 46.6384 29.7447C55.5888 26.608 58.9568 27.8728 65.5104 30.3312C66.7808 30.8071 68.1616 31.3272 69.5984 31.83L71.0608 27.7337C69.5248 27.1961 68.24 26.7139 67.056 26.2697ZM80 9.74678H22.9088V5.1382H18.064V0H13.6608V5.1382H8.8144V9.74678H0L4.7216 24.2239C6.2224 23.6626 7.5856 23.1773 8.8592 22.7709C15.4688 20.6666 19.6576 20.7299 27.9552 23.6405C35.056 26.1305 37.3536 26.1305 44.4544 23.6405C54.0512 20.2761 58.2432 20.7204 67.3312 24.0926L80 9.74678Z" fill="#343434"/>
</svg>

<svg width="80" height="32" fill="none" xmlns="http://www.w3.org/2000/svg"><path fill-rule="evenodd" clip-rule="evenodd" d="M57.754 18.874v-3.175h6.21v3.176l-6.21-.001zm-8.27 0v-3.175h6.21v3.176l-6.21-.001zm17.572 7.396c-7.542-2.832-11.42-4.288-21.88-.622-7.58 2.658-10.362 2.658-17.942 0-10.464-3.664-14.336-2.212-21.88.62-1.184.444-2.47.928-4.004 1.464l1.463 4.096c1.437-.5 2.819-1.023 4.088-1.498 6.553-2.46 9.917-3.722 18.872-.585 8.49 2.977 12.206 3.037 20.865 0 8.95-3.137 12.319-1.872 18.872.586 1.27.476 2.652.996 4.088 1.499l1.463-4.096c-1.536-.538-2.821-1.02-4.005-1.464zM80 9.747H22.909V5.138h-4.845V0h-4.403v5.138H8.814v4.609H0l4.722 14.477a90.277 90.277 0 0 1 4.137-1.453c6.61-2.104 10.799-2.041 19.096.87 7.101 2.49 9.399 2.49 16.5 0 9.596-3.365 13.788-2.92 22.876.452L80 9.747z" fill="#343434"/></svg>
